Catalina-light/actions/16/go-top.svg

<svg xmlns="http://www.w3.org/2000/svg" width="16" height="16" viewBox="0 0 16 16">
 <defs>
  <style id="current-color-scheme" type="text/css">
   .ColorScheme-Text { color:#5c616c; } .ColorScheme-Highlight { color:#5294e2; }
  </style>
 </defs>
 <path style="fill:currentColor" class="ColorScheme-Text" d="M 8 -0.00390625 C 6.89543 -0.00390625 6 0.89152375 6 1.9960938 C 6 3.1006637 6.89543 3.9960938 8 3.9960938 C 9.10457 3.9960938 10 3.1006938 10 1.9960938 C 10 0.89152375 9.10457 -0.00390625 8 -0.00390625 z M 8 4.7773438 L 1.96875 10.777344 L 3.34375 12.183594 L 6.96875 8.5273438 L 7 15.996094 L 9 15.996094 L 8.96875 8.5273438 L 12.625 12.183594 L 14 10.777344 L 8 4.7773438 z"/>
</svg>

<svg width="16" height="16" viewBox="0 0 16 16" xmlns="http://www.w3.org/2000/svg">
<defs>
<style id="current-color-scheme" type="text/css">.ColorScheme-Text { color:#5c616c; } .ColorScheme-Highlight { color:#5294e2; }</style>
</defs>
<path class="ColorScheme-Text" d="m8-0.0039062c-1.1046 0-2 0.89543-2 2 0 1.1046 0.89543 2 2 2s2-0.8954 2-2-0.89543-2-2-2zm0 4.7813-6.0312 6 1.375 1.4062 3.625-3.6563 0.03125 7.4688h2l-0.03125-7.4688 3.6562 3.6563 1.375-1.4062-6-6z" fill="currentColor"/>
</svg>
